!!!COM: Gershwin, George
!!!OTL: An American in Paris, Tone Poem for Orchestra
!!!OMV:
!!!example: 693
!!!work: Ger-10
**kern	**kern	**kern	**kern	**kern	**kern	**dynam	**kern	**dynam	**kern	**dynam	**kern	**kern	**kern	**kern	**kern	**kern	**kern	**kern	**kern	**dynam	**kern	**kern	**dynam	**kern	**dynam	**kern	**kern	**kern	**kern	**kern	**kern	**kern	**kern
*part28	*part27	*part26	*part25	*part24	*part23	*part23	*part22	*part22	*part21	*part21	*part20	*part19	*part18	*part17	*part16	*part15	*part14	*part13	*part12	*part12	*part11	*part10	*part10	*part9	*part9	*part8	*part7	*part6	*part5	*part4	*part3	*part2	*part1
*staff28	*staff27	*staff26	*staff25	*staff24	*staff23	*	*staff22	*	*staff21	*	*staff20	*staff19	*staff18	*staff17	*staff16	*staff15	*staff14	*staff13	*staff12	*	*staff11	*staff10	*	*staff9	*	*staff8	*staff7	*staff6	*staff5	*staff4	*staff3	*staff2	*staff1
*I"Contrabass	*I"Violoncello	*I"Viola	*I"Violin II	*I"Violin I	*I"Baritone Saxophone	*	*I"Tenor Saxophone	*	*I"Alto Saxophone	*	*I"Xylophone	*I"Bass Drum	*I"Cymbals	*I"Snare Drum	*I"Timpani	*I"Tuba	*I"Trombone	*I"Trombone	*I"Trumpet in Bb	*	*I"Trumpet in Bb	*I"Horn in F	*	*I"Horn in F	*	*I"Bassoon	*I"Bass Clarinet in Bb	*I"Clarinet in Bb	*I"Clarinet in Bb	*I"Cor Anglais	*I"Oboe	*I"Piccolo	*I"Flute
*I'Cb.	*I'Vc.	*I'Vla.	*I'Vln. II	*I'Vln. I	*I'Bari. Sax.	*	*I'Ten. Sax.	*	*I'Alto Sax.	*	*I'Xyl.	*I'B. D.	*I'Cym.	*I'S. D.	*I'Timp.	*I'Tba.	*I'Tbn.	*I'Tbn.	*I'Tpt.	*	*I'Tpt.	*I'Hn.	*	*I'Hn.	*	*I'Bsn.	*I'B. Cl.	*I'Cl.	*I'Cl.	*I'C. A.	*I'Ob.	*I'Picc.	*I'Fl.
*clefF4	*clefF4	*clefG2	*clefG2	*clefG2	*clefG2	*	*clefG2	*	*clefG2	*	*clefG2	*clefpercussion0	*clefpercussion0	*clefpercussion0	*clefF4	*clefF4	*clefF4	*clefF4	*clefG2	*	*clefG2	*clefG2	*	*clefG2	*	*clefF4	*clefG2	*clefG2	*clefG2	*clefG2	*clefG2	*clefG2	*clefG2
*k[b-]	*k[b-]	*k[b-]	*k[b-]	*k[b-]	*k[b-]	*	*k[b-]	*	*k[b-]	*	*k[b-]	*	*	*	*	*k[b-]	*k[b-]	*k[b-]	*k[b-]	*	*k[b-]	*k[b-]	*	*k[b-]	*	*k[b-]	*k[b-]	*k[b-]	*k[b-]	*k[b-]	*k[b-]	*k[b-]	*k[b-]
*F:	*F:	*F:	*F:	*F:	*F:	*	*F:	*	*F:	*	*F:	*	*	*	*	*F:	*F:	*F:	*F:	*	*F:	*F:	*	*F:	*	*F:	*F:	*F:	*F:	*F:	*F:	*F:	*F:
*M2/4	*M2/4	*M2/4	*M2/4	*M2/4	*M2/4	*	*M2/4	*	*M2/4	*	*M2/4	*M2/4	*M2/4	*M2/4	*M2/4	*M2/4	*M2/4	*M2/4	*M2/4	*	*M2/4	*M2/4	*	*M2/4	*	*M2/4	*M2/4	*M2/4	*M2/4	*M2/4	*M2/4	*M2/4	*M2/4
*MM121	*MM121	*MM121	*MM121	*MM121	*MM121	*	*MM121	*	*MM121	*	*MM121	*MM121	*MM121	*MM121	*MM121	*MM121	*MM121	*MM121	*MM121	*	*MM121	*MM121	*	*MM121	*	*MM121	*MM121	*MM121	*MM121	*MM121	*MM121	*MM121	*MM121
*	*	*	*	*	*	*	*	*	*	*	*8va	*	*	*	*	*	*	*	*	*	*	*	*	*	*	*	*	*	*	*	*	*	*
=657	=657	=657	=657	=657	=657	=657	=657	=657	=657	=657	=657	=657	=657	=657	=657	=657	=657	=657	=657	=657	=657	=657	=657	=657	=657	=657	=657	=657	=657	=657	=657	=657	=657
8FF^	8FF^L 8C	8g'^L	8cc'^L	8gg'^L	2r	.	2r	.	2r	.	8ggg^L	8r	8r	8r	8FF^L	8FF'^	8C'^	8r	2r	.	8r	[2B- [2c	.	[2B- [2c	.	8FF'^ 8C	[2B-	8r	8r	[2c	8r	8gg'^L	8g'^L 8cc
.	.	.	.	.	.	.	.	.	.	.	.	.	.	.	.	.	.	.	.	.	.	.	.	.	.	.	.	8qa'^/ 8qdd	8qdd'^/	.	8qa'^/ 8qdd	.	.
8r	8B-^J 8c	16ffL	16cccL	16fffL	.	.	.	.	.	.	16ffffL	8x	8x	8x	8C^J	8r	8r	(8F^	.	.	(8f^	.	.	.	.	8r	.	8b-'^	8cc'^	.	8b-'^ 8cc	16fffL	16ffL 16ccc
.	.	16ffJJ	16cccJJ	16fffJJ	.	.	.	.	.	.	16ffffJJ	.	.	.	.	.	.	.	.	.	.	.	.	.	.	.	.	.	.	.	.	16fffJJ	16ffJJ 16ccc
8FF^	8FF^L 8C	16ffLL	16cccLL	16fffLL	.	.	.	.	.	.	16ffffLL	8r	8r	8r	8FF^L	8FF'^	8C'^	8G'L)	.	.	8g'L)	.	.	.	.	8FF'^ 8C	.	8r	8r	.	8r	16fffLL	16ffLL 16ccc
.	.	16ffJ	16cccJ	16fffJ	.	.	.	.	.	.	16ffffJ	.	.	.	.	.	.	.	.	.	.	.	.	.	.	.	.	.	.	.	.	16fffJ	16ffJ 16ccc
.	.	.	.	.	.	.	.	.	.	.	.	.	.	.	.	.	.	.	.	.	.	.	.	.	.	.	.	8qa'^/	8qdd'^/	.	8qa'^/ 8qdd	.	.
8r	8B-^J 8c	8gg'^J	8ccc'^J	8ggg'^J	.	.	.	.	.	.	8gggg^J	8x	8x	8x	8C^J	8r	8r	8E^J	.	.	8e^J	.	.	.	.	8r	.	8b-'^	8cc'^	.	8b-'^ 8cc	8ggg'^J	8gg'^J 8ccc
=658	=658	=658	=658	=658	=658	=658	=658	=658	=658	=658	=658	=658	=658	=658	=658	=658	=658	=658	=658	=658	=658	=658	=658	=658	=658	=658	=658	=658	=658	=658	=658	=658	=658
8FF^L	8FF^L 8C	16ccLL	16ggLL	16cccLL	2r	.	2r	.	2r	.	16ccccLL	4r	4r	4r	8FF^L	8FF'^L	8C'^L	8F^L	2r	.	8f^L	2B-_ 2c_	.	2B-_ 2c_	.	8FF'^L 8C	2B-_	4r	4r	2c_	4r	16cccLL	16ccLL 16gg
.	.	16cc	16gg	16ccc	.	.	.	.	.	.	16cccc	.	.	.	.	.	.	.	.	.	.	.	.	.	.	.	.	.	.	.	.	16ccc	16cc 16gg
8FF^J	8FF^J 8C	16cc	16gg	16ccc	.	.	.	.	.	.	16cccc	.	.	.	8FF^J	8FF'^J	8C'^J	8E^J	.	.	8e^J	.	.	.	.	8FF'^J 8C	.	.	.	.	.	16ccc	16cc 16gg
.	.	16ccJJ	16ggJJ	16cccJJ	.	.	.	.	.	.	16ccccJJ	.	.	.	.	.	.	.	.	.	.	.	.	.	.	.	.	.	.	.	.	16cccJJ	16ccJJ 16gg
.	.	.	.	.	.	.	.	.	.	.	.	.	.	.	.	.	.	.	.	.	.	.	.	.	.	.	.	8qa'^/	8qdd'^/	.	8qa'^/ 8qdd	.	.
8r	8B-^L 8c	8dd'^L	8gg'^L	8ddd'^L	.	.	.	.	.	.	8dddd^L	8x	8x	8x	8E^L	8r	8r	8D^L	.	.	8d^L	.	.	.	.	8r	.	8b-'^	8cc'^	.	8b-'^ 8cc	8ddd'^L	8dd'^L 8gg
8FF^	8FF^J 8C	16fL	16ccL	16ffL	.	.	.	.	.	.	16fffL	8r	8r	8r	8FF^J	8FF'^	8C'^	(8F^J	.	.	(8f^J	.	.	.	.	8FF'^ 8C	.	8r	8r	.	8r	16ffL	16fL 16cc
.	.	16fJJ	16ccJJ	16ffJJ	.	.	.	.	.	.	16fffJJ	.	.	.	.	.	.	.	.	.	.	.	.	.	.	.	.	.	.	.	.	16ffJJ	16fJJ 16cc
=659	=659	=659	=659	=659	=659	=659	=659	=659	=659	=659	=659	=659	=659	=659	=659	=659	=659	=659	=659	=659	=659	=659	=659	=659	=659	=659	=659	=659	=659	=659	=659	=659	=659
8FF^	8FF^L 8C	16fLL	16ccLL	16ffLL	2r	.	2r	.	2r	.	16fffLL	8r	8r	8r	8FF^L	8FF'^	8C'^	8G'L)	2r	.	8g'L)	2B-] 2c]	.	2B-] 2c]	.	8FF'^ 8C	2B-_	8r	8r	2c_	8r	16ffLL	16fLL 16cc
.	.	16fJ	16ccJ	16ffJ	.	.	.	.	.	.	16fffJ	.	.	.	.	.	.	.	.	.	.	.	.	.	.	.	.	.	.	.	.	16ffJ	16fJ 16cc
.	.	.	.	.	.	.	.	.	.	.	.	.	.	.	.	.	.	.	.	.	.	.	.	.	.	.	.	8qa'^/	8qdd'^/	.	8qa'^/ 8qdd	.	.
8r	8B-^J 8c	8g'^J	8cc'^J	8gg'^J	.	.	.	.	.	.	8ggg^J	8x	8x	8x	8C^J	8r	8r	8E^J	.	.	8e^J	.	.	.	.	8r	.	8b-'^	8cc'^	.	8b-'^ 8cc	8gg'^J	8g'^J 8cc
8FF^	8FF^L 8C	16ffLL	16cccLL	16fffLL	.	.	.	.	.	.	16ffffLL	8r	8r	8r	8FF^L	8FF'^	8C'^	8F^L	.	.	8f^L	.	.	.	.	8FF'^ 8C	.	8r	8r	.	8r	16fffLL	16ffLL 16ccc
.	.	16ff	16ccc	16fff	.	.	.	.	.	.	16ffff	.	.	.	.	.	.	.	.	.	.	.	.	.	.	.	.	.	.	.	.	16fff	16ff 16ccc
.	.	.	.	.	.	.	.	.	.	.	.	.	.	.	.	.	.	.	.	.	.	.	.	.	.	.	.	8qa'^/	8qdd'^/	.	8qa'^/ 8qdd	.	.
8r	8B-^J 8c	16ff	16ccc	16fff	.	.	.	.	.	.	16ffff	8x	8x	8x	8C^J	8r	8r	8E^J	.	.	8e^J	.	.	.	.	8r	.	8b-'^	8cc'^	.	8b-'^ 8cc	16fff	16ff 16ccc
.	.	16ffJJ	16cccJJ	16fffJJ	.	.	.	.	.	.	16ffffJJ	.	.	.	.	.	.	.	.	.	.	.	.	.	.	.	.	.	.	.	.	16fffJJ	16ffJJ 16ccc
=660	=660	=660	=660	=660	=660	=660	=660	=660	=660	=660	=660	=660	=660	=660	=660	=660	=660	=660	=660	=660	=660	=660	=660	=660	=660	=660	=660	=660	=660	=660	=660	=660	=660
8FF^L	8FF^L 8C	8gg'^L	8ccc'^L	8ggg'^L	4r	.	4r	.	4r	.	8gggg^L	4r	4r	4r	8FF^L	8FF'^L	8C'^L	8D^L	2r	.	8d^L	4r	.	4r	.	8FF'^L 8C	2B-]	4r	4r	2c]	4r	8ggg'^L	8gg'^L 8ccc
8FF^J	8FF^J 8C	16ccL	16ggL	16cccL	.	.	.	.	.	.	16ccccL	.	.	.	8FF^J	8FF'^J	8C'^J	(8F^J	.	.	(8f^J	.	.	.	.	8FF'^J 8C	.	.	.	.	.	16cccL	16ccL 16gg
.	.	16ccJJ	16ggJJ	16cccJJ	.	.	.	.	.	.	16ccccJJ	.	.	.	.	.	.	.	.	.	.	.	.	.	.	.	.	.	.	.	.	16cccJJ	16ccJJ 16gg
.	.	.	.	.	.	.	.	.	.	.	.	.	.	.	.	.	.	.	.	.	.	.	.	.	.	.	.	8qa'^/	8qdd'^/	.	8qa'^/ 8qdd	.	.
8r	8B-^L 8c	16ccLL	16ggLL	16cccLL	(12c^L	f	(12e^L	f	(12g^L	f	16ccccLL	8x	8x	8x	8E^L	8r	8r	8G')	.	.	8g')	(12c^L 12g	f	(12e^L 12g	f	8r	.	8b-'^	8cc'^	.	8b-'^ 8cc	16cccLL	16ccLL 16gg
.	.	16ccJ	16ggJ	16cccJ	.	.	.	.	.	.	16ccccJ	.	.	.	.	.	.	.	.	.	.	.	.	.	.	.	.	.	.	.	.	16cccJ	16ccJ 16gg
.	.	.	.	.	12B-^	.	12d^	.	12f^	.	.	.	.	.	.	.	.	.	.	.	.	12B-^ 12f	.	12d^ 12f	.	.	.	.	.	.	.	.	.
8FF^	8FF^J 8C	8dd'^J	8gg'^J	8ddd'^J	.	.	.	.	.	.	8dddd^J	8r	8r	8r	8FF^J	8FF'^	8C'^	8r	.	.	8r	.	.	.	.	8FF'^ 8C	.	8r	8r	.	8r	8ddd'^J	8dd'^J 8gg
.	.	.	.	.	12d^J)	.	12f^J)	.	12a^J)	.	.	.	.	.	.	.	.	.	.	.	.	12B-X^J) 12f	.	12f^J) 12a	.	.	.	.	.	.	.	.	.
*	*	*	*	*	*	*	*	*	*	*	*X8va	*	*	*	*	*	*	*	*	*	*	*	*	*	*	*	*	*	*	*	*	*	*
=661	=661	=661	=661	=661	=661	=661	=661	=661	=661	=661	=661	=661	=661	=661	=661	=661	=661	=661	=661	=661	=661	=661	=661	=661	=661	=661	=661	=661	=661	=661	=661	=661	=661
8FF^	8FF'^ 8C	16fLL	16ccLL	16ffLL	(12A^L	.	(12c^L	.	(12e^L	.	2r	8r	8r	8r	8FF^L	2r	2r	2r	2r	.	2r	(12A^L 12e	.	(12c^L 12e	.	8FF'^ 8C	(12e^L	(12ee^L	(12ee^L	2r	(12a^L 12cc	16ffLL	16fLL 16cc
.	.	16f	16cc	16ff	.	.	.	.	.	.	.	.	.	.	.	.	.	.	.	.	.	.	.	.	.	.	.	.	.	.	.	16ff	16f 16cc
.	.	.	.	.	12G^	.	12B-^	.	12d^	.	.	.	.	.	.	.	.	.	.	.	.	12G^ 12d	.	12B-^ 12d	.	.	12d^	12dd^	12dd^	.	12g^ 12b-	.	.
8r	8r	16f	16cc	16ff	.	.	.	.	.	.	.	8x	8x	8x	8C^J	.	.	.	.	.	.	.	.	.	.	8r	.	.	.	.	.	16ff	16f 16cc
.	.	.	.	.	12B-^J)	.	12d^J)	.	12f^J)	.	.	.	.	.	.	.	.	.	.	.	.	12B-^J) 12f	.	12d^J) 12f	.	.	12f^J)	12ff^J)	12ff^J)	.	12b-^J) 12dd	.	.
.	.	16fJJ	16ccJJ	16ffJJ	.	.	.	.	.	.	.	.	.	.	.	.	.	.	.	.	.	.	.	.	.	.	.	.	.	.	.	16ffJJ	16fJJ 16cc
8FF^	8FF'^ 8C	8g'^	8cc'^	8gg'^	(12c^L	.	(12e^L	.	(12g^L	.	.	8r	8r	8r	8FF^L	.	.	.	.	.	.	(12c^L 12g	.	(12e^L 12g	.	8FF'^ 8C	(12g^L	(12gg^L	(12gg^L	.	(12cc^L 12ee	8gg'^	8g'^ 8cc
.	.	.	.	.	12A^	.	12c^	.	12e^	.	.	.	.	.	.	.	.	.	.	.	.	12A^ 12e	.	12c^ 12e	.	.	12e^	12ee^	12ee^	.	12a^ 12cc	.	.
8r	8r	8r	8r	8r	.	.	.	.	.	.	.	8x	8x	8x	8C^J	.	.	.	.	.	.	.	.	.	.	8r	.	.	.	.	.	8r	8r
.	.	.	.	.	12B-^J)	.	12d^J)	.	12f^J)	.	.	.	.	.	.	.	.	.	.	.	.	12B-^J) 12f	.	12d^J) 12f	.	.	12f^J)	12ff^J)	12ff^J)	.	12b-^J) 12dd	.	.
=662	=662	=662	=662	=662	=662	=662	=662	=662	=662	=662	=662	=662	=662	=662	=662	=662	=662	=662	=662	=662	=662	=662	=662	=662	=662	=662	=662	=662	=662	=662	=662	=662	=662
8FF^L	8FF'^L 8C	(24cLL	(24ccLL	(24ccLL	16A^LL	.	16c^LL	.	16e^LL	.	2r	2r	2r	16x^LL	16FF^LL	2r	8c^L	8c^L	16a^LL	f	16cc^LL 16ee	16A^LL 16e	.	16c^LL 16e	.	8FF'^L 8C	16e^LL	16ee^LL	16ee^LL	2r	16a^LL 16cc	8ccc^TL	8cc^TL
.	.	24cc	24ccc	24ccc	.	.	.	.	.	.	.	.	.	.	.	.	.	.	.	.	.	.	.	.	.	.	.	.	.	.	.	.	.
.	.	.	.	.	16G^	.	16B-^	.	16d^	.	.	.	.	16x^	16FF^	.	.	.	16g^	.	16b-^ 16dd	16G^ 16d	.	16B-^ 16d	.	.	16d^	16dd^	16dd^	.	16g^ 16b-	.	.
.	.	24cJ)	24ccJ)	24ccJ)	.	.	.	.	.	.	.	.	.	.	.	.	.	.	.	.	.	.	.	.	.	.	.	.	.	.	.	.	.
8FF^J	8FF'^J 8C	(24dL	(24ddL	(24ddL	(16B-^	.	(16d^	.	(16f^	.	.	.	.	16x^	16FF^	.	8B-^J	8B-^J	(16b-^	.	(16dd^ 16ff	(16B-^ 16f	.	(16d^ 16f	.	8FF'^J 8C	(16f^	(16ff^	(16ff^	.	(16b-^ 16dd	8ddd^TJ	8dd^TJ
.	.	24dd	24ddd	24ddd	.	.	.	.	.	.	.	.	.	.	.	.	.	.	.	.	.	.	.	.	.	.	.	.	.	.	.	.	.
.	.	.	.	.	16c'JJ)	.	16e'JJ)	.	16g'JJ)	.	.	.	.	16x^JJ	16FF^JJ	.	.	.	16cc'JJ)	.	16ee'JJ) 16gg	16c'JJ) 16g	.	16e'JJ) 16g	.	.	16g'JJ)	16gg'JJ)	16gg'JJ)	.	16cc'JJ) 16ee	.	.
.	.	24dJJ)	24ddJJ)	24ddJJ)	.	.	.	.	.	.	.	.	.	.	.	.	.	.	.	.	.	.	.	.	.	.	.	.	.	.	.	.	.
8r	8r	(24eLL	(24eeLL	(24eeLL	16A^LL	.	16c^LL	.	16e^LL	.	.	.	.	16x^LL	16C^LL	.	8A^L	8A^L	16a^LL	.	16cc^LL 16ee	16A^LL 16e	.	16c^LL 16e	.	8r	16e^LL	16ee^LL	16ee^LL	.	16a^LL 16cc	8eee^tL	8ee^tL
.	.	24ee	24eee	24eee	.	.	.	.	.	.	.	.	.	.	.	.	.	.	.	.	.	.	.	.	.	.	.	.	.	.	.	.	.
.	.	.	.	.	16B-^	.	16d^	.	16f^	.	.	.	.	16x^	16C^	.	.	.	16b-^	.	16dd^ 16ff	16B-^ 16f	.	16d^ 16f	.	.	16f^	16ff^	16ff^	.	16b-^ 16dd	.	.
.	.	24eJ)	24eeJ)	24eeJ)	.	.	.	.	.	.	.	.	.	.	.	.	.	.	.	.	.	.	.	.	.	.	.	.	.	.	.	.	.
8FF^	8FF'^ 8C	(24fL	(24ffL	(24ffL	16A^	.	16c^	.	16e^	.	.	.	.	16x^	16FF^	.	8G^J	8G^J	16a^	.	16cc^ 16ee	16A^ 16e	.	16c^ 16e	.	8FF'^ 8C	16e^	16ee^	16ee^	.	16a^ 16cc	8fff^TJ	8ff^TJ
.	.	24ff	24fff	24fff	.	.	.	.	.	.	.	.	.	.	.	.	.	.	.	.	.	.	.	.	.	.	.	.	.	.	.	.	.
.	.	.	.	.	16G^JJ	.	16B-^JJ	.	16d^JJ	.	.	.	.	16x^JJ	16FF^JJ	.	.	.	16g^JJ	.	16b-^JJ 16dd	16G^JJ 16d	.	16B-^JJ 16d	.	.	16d^JJ	16dd^JJ	16dd^JJ	.	16g^JJ 16b-	.	.
.	.	24fJJ)	24ffJJ)	24ffJJ)	.	.	.	.	.	.	.	.	.	.	.	.	.	.	.	.	.	.	.	.	.	.	.	.	.	.	.	.	.
=663	=663	=663	=663	=663	=663	=663	=663	=663	=663	=663	=663	=663	=663	=663	=663	=663	=663	=663	=663	=663	=663	=663	=663	=663	=663	=663	=663	=663	=663	=663	=663	=663	=663
*	*	*	*X8va	*X8va	*	*	*	*	*	*	*	*	*	*	*	*	*	*	*	*	*	*	*	*	*	*	*	*	*	*	*	*	*
8FF^	8FF'^ 8C	(24gLL	(24gLL	(24gLL	(16B-^LL	.	(16d^LL	.	(16f^LL	.	2r	2r	2r	16x^LL	16FF^LL	2r	8F^L	8F^L	(16b-^LL	.	(16dd^LL 16ff	(16B-^LL 16f	.	(16d^LL 16f	.	8FF'^ 8C	(16f^LL	(16ff^LL	(16ff^LL	2r	(16b-^LL 16dd	8ggg^TL	8gg^TL
.	.	24gg	24gg	24gg	.	.	.	.	.	.	.	.	.	.	.	.	.	.	.	.	.	.	.	.	.	.	.	.	.	.	.	.	.
.	.	.	.	.	16c')	.	16e')	.	16g')	.	.	.	.	16x^	16FF^	.	.	.	16cc')	.	16ee') 16gg	16c') 16g	.	16e') 16g	.	.	16g')	16gg')	16gg')	.	16cc') 16ee	.	.
.	.	24gJ)	24gJ)	24gJ)	.	.	.	.	.	.	.	.	.	.	.	.	.	.	.	.	.	.	.	.	.	.	.	.	.	.	.	.	.
8r	8r	(24aL	(24aL	(24aL	16A^	.	16c^	.	16e^	.	.	.	.	16x^	16C^	.	8E^J	8E^J	16a^	.	16cc^ 16ee	16A^ 16e	.	16c^ 16e	.	8r	16e^	16ee^	16ee^	.	16a^ 16cc	8aaa^tJ	8aa^tJ
.	.	24aa	24aa	24aa	.	.	.	.	.	.	.	.	.	.	.	.	.	.	.	.	.	.	.	.	.	.	.	.	.	.	.	.	.
.	.	.	.	.	16B-^JJ	.	16d^JJ	.	16f^JJ	.	.	.	.	16x^JJ	16C^JJ	.	.	.	16b-^JJ	.	16dd^JJ 16ff	16B-^JJ 16f	.	16d^JJ 16f	.	.	16f^JJ	16ff^JJ	16ff^JJ	.	16b-^JJ 16dd	.	.
.	.	24aJJ)	24aJJ)	24aJJ)	.	.	.	.	.	.	.	.	.	.	.	.	.	.	.	.	.	.	.	.	.	.	.	.	.	.	.	.	.
8FF^	8FF'^ 8C	(24b-LL	(24b-LL	(24b-LL	16A^LL	.	16c^LL	.	16e^LL	.	.	.	.	16x^LL	16FF^LL	.	8D^L	8D^L	16a^LL	.	16cc^LL 16ee	16A^LL 16e	.	16c^LL 16e	.	8FF'^ 8C	16e^LL	16ee^LL	16ee^LL	.	16a^LL 16cc	8bbb-^TL	8bb-^TL
.	.	24bb-	24bb-	24bb-	.	.	.	.	.	.	.	.	.	.	.	.	.	.	.	.	.	.	.	.	.	.	.	.	.	.	.	.	.
.	.	.	.	.	16G^	.	16B-^	.	16d^	.	.	.	.	16x^	16FF^	.	.	.	16g^	.	16b-^ 16dd	16G^ 16d	.	16B-^ 16d	.	.	16d^	16dd^	16dd^	.	16g^ 16b-	.	.
.	.	24b-J)	24b-J)	24b-J)	.	.	.	.	.	.	.	.	.	.	.	.	.	.	.	.	.	.	.	.	.	.	.	.	.	.	.	.	.
8r	8r	(24ccL	(24ccL	(24ccL	16B-^	.	16d^	.	16f^	.	.	.	.	16x^	16C^	.	8C^J	8C^J	16b-^	.	16dd^ 16ff	16B-^ 16f	.	16d^ 16f	.	8r	16f^	16ff^	16ff^	.	16b-^ 16dd	8cccc^TJ	8ccc^TJ
.	.	24ccc	24ccc	24ccc	.	.	.	.	.	.	.	.	.	.	.	.	.	.	.	.	.	.	.	.	.	.	.	.	.	.	.	.	.
.	.	.	.	.	16c^JJ	.	16e^JJ	.	16g^JJ	.	.	.	.	16x^JJ	16C^JJ	.	.	.	16cc^JJ	.	16ee^JJ 16gg	16c^JJ 16g	.	16e^JJ 16g	.	.	16g^JJ	16gg^JJ	16gg^JJ	.	16cc^JJ 16ee	.	.
.	.	24ccJJ)	24ccJJ)	24ccJJ)	.	.	.	.	.	.	.	.	.	.	.	.	.	.	.	.	.	.	.	.	.	.	.	.	.	.	.	.	.
=	=	=	=	=	=	=	=	=	=	=	=	=	=	=	=	=	=	=	=	=	=	=	=	=	=	=	=	=	=	=	=	=	=
*-	*-	*-	*-	*-	*-	*-	*-	*-	*-	*-	*-	*-	*-	*-	*-	*-	*-	*-	*-	*-	*-	*-	*-	*-	*-	*-	*-	*-	*-	*-	*-	*-	*-
!!!system-decoration: [(s1,s2,s3,s4,s5,s6,s7,s8)][(s9,s10,s11,s12,s13,s14,s15)][(s16)][(s17,s18,s19,s20)][(s21,s22,s23)][(s24,s25,s26,s27,s28)]
!!!CDT: 1898/09/26-1937/07/11
!!!CBL: Brooklyn, United States
!!!CDL: Hollywood, United States
!!!CNT: American
!!!AGN: Orchestral; Programmatic
!!!MCN: Damrosch, Walter
!!!MDT: 1928/12/13
!!!MGN: New York Philharmonic Orchestra
!!!MLC: New York, New York, United States of America
!!!MPD: 1928
!!!MPN:
!!!ODT: 1928
!!!PDT: unknown
!!!excerpt-start-measure: 657
!!!excerpt-end-measure: 663
!!!excerpt-start-time: 17:34
!!!excerpt-end-time: 17:40
!!!EEV: 2020/01/27
!!!ONB: Converted from MusicXML on 2020/01/27
